X:1
T: Cadgers in the Canongate
C:
R:Reel
Q: 232
K:A
M:4/4
L:1/8
|:c|Ac Ac ef1/2g1/2 af|ec ac B1/2B1/2B Bc|Ac Ac ef1/2g1/2 af|ec ac A1/2A1/2A Ac|
Ac Ac ef1/2g1/2 af|ec ac B1/2B1/2B Bc|Ac Ac ef1/2g1/2 af|ec ac A1/2A1/2A Aa|
c'b af af ec|Ac ac B1/2B1/2B Be|c'b af af ec|Ac ac A1/2A1/2A Aa|
c'b af af ec|Ac ac B1/2B1/2B Be|bg af fe ec|Ac ac A1/2A1/2A A:|
